X:512
T:Muirland Willie
C:Trad.
B:RSCDS 21-9
S:Colin Hume's website,  colinhume.com  - chords can also be printed below the stave.
Q:3/8=116
M:6/8
L:1/8
K:Em
P:A
|:E | "Em"E2 F G2 A | "G"B2 c d2 B | "G"G2 G d2 B | "D"AFA D2 F |\
"Em"E2 F G2 A | "G"B>cB g2 f | "Em"edc "B7"B^c^d | "Em"e3-e2 :|
P:B
|:e | "Em"e2 f g2 e | "G"d2 B d2 B | "G"G>AG d2 B | "D"AFA D2 E/^D/ |\
"Em"E>FE G2 A | "G"B>cB g2 f | "Em"edc "B7"B^c^d | "Em"e3-e2 :|

